docs/benchmarks/svg/operations/Probabilistic/InsertDeleteCycles/Normal/Rotations__unique.svg

<svg xmlns="http://www.w3.org/2000/svg" xmlns:xlink="http://www.w3.org/1999/xlink" viewBox="0 0 400 250"><path fill="none" d="M0 0h400v250H0z"/><defs><path id="d" stroke="currentColor" stroke-width=".267" d="M-1 0h2M0-1v2"/><path id="e" stroke="currentColor" stroke-width=".267" d="m-1-1 2 2m0-2-2 2"/><path id="f" stroke="currentColor" stroke-width=".267" d="M-1 0h2M0-1v2m-1-2 2 2m-2 0 2-2"/><path id="b" stroke="currentColor" stroke-width=".267" d="M-1-1h2v2h-2z"/><path id="a" stroke="currentColor" stroke-width=".267" d="m0-1.33-1.33 2h2.66z"/><path id="c" stroke="currentColor" stroke-width=".267" d="M0 1.33 1.265.411.782-1.067l-1.564-.009-.483 1.487z"/></defs><path fill="none" stroke="#333" stroke-linecap="round" stroke-linejoin="round" stroke-width=".1" d="M46.1 205V45.01" class="gridline" color="#000"/><g fill="none" stroke-linecap="round" stroke-linejoin="round" stroke-width="0" color="#000"><path d="M46.1 205v-7.5m0-152.49v7.5"/><text fill="#000" font-family="KaTeX_Main" font-size="8" text-anchor="middle" transform="translate(46.1 215.1)"><tspan> 1</tspan></text></g><path fill="none" stroke="#333" stroke-linecap="round" stroke-linejoin="round" stroke-width=".1" d="M82.31 205V45.01" class="gridline" color="#000"/><g fill="none" stroke-linecap="round" stroke-linejoin="round" stroke-width="0" color="#000"><path d="M82.31 205v-7.5m0-152.49v7.5"/><text fill="#000" font-family="KaTeX_Main" font-size="8" text-anchor="middle" transform="translate(82.31 215.1)"><tspan> 2</tspan></text></g><path fill="none" stroke="#333" stroke-linecap="round" stroke-linejoin="round" stroke-width=".1" d="M118.52 205V45.01" class="gridline" color="#000"/><g fill="none" stroke-linecap="round" stroke-linejoin="round" stroke-width="0" color="#000"><path d="M118.52 205v-7.5m0-152.49v7.5"/><text fill="#000" font-family="KaTeX_Main" font-size="8" text-anchor="middle" transform="translate(118.52 215.1)"><tspan> 3</tspan></text></g><path fill="none" stroke="#333" stroke-linecap="round" stroke-linejoin="round" stroke-width=".1" d="M154.73 205V45.01" class="gridline" color="#000"/><g fill="none" stroke-linecap="round" stroke-linejoin="round" stroke-width="0" color="#000"><path d="M154.73 205v-7.5m0-152.49v7.5"/><text fill="#000" font-family="KaTeX_Main" font-size="8" text-anchor="middle" transform="translate(154.73 215.1)"><tspan> 4</tspan></text></g><path fill="none" stroke="#333" stroke-linecap="round" stroke-linejoin="round" stroke-width=".1" d="M190.94 205V45.01" class="gridline" color="#000"/><g fill="none" stroke-linecap="round" stroke-linejoin="round" stroke-width="0" color="#000"><path d="M190.94 205v-7.5m0-152.49v7.5"/><text fill="#000" font-family="KaTeX_Main" font-size="8" text-anchor="middle" transform="translate(190.94 215.1)"><tspan> 5</tspan></text></g><path fill="none" stroke="#333" stroke-linecap="round" stroke-linejoin="round" stroke-width=".1" d="M227.15 205V45.01" class="gridline" color="#000"/><g fill="none" stroke-linecap="round" stroke-linejoin="round" stroke-width="0" color="#000"><path d="M227.15 205v-7.5m0-152.49v7.5"/><text fill="#000" font-family="KaTeX_Main" font-size="8" text-anchor="middle" transform="translate(227.15 215.1)"><tspan> 6</tspan></text></g><path fill="none" stroke="#333" stroke-linecap="round" stroke-linejoin="round" stroke-width=".1" d="M263.36 205V45.01" class="gridline" color="#000"/><g fill="none" stroke-linecap="round" stroke-linejoin="round" stroke-width="0" color="#000"><path d="M263.36 205v-7.5m0-152.49v7.5"/><text fill="#000" font-family="KaTeX_Main" font-size="8" text-anchor="middle" transform="translate(263.36 215.1)"><tspan> 7</tspan></text></g><path fill="none" stroke="#333" stroke-linecap="round" stroke-linejoin="round" stroke-width=".1" d="M299.57 205V45.01" class="gridline" color="#000"/><g fill="none" stroke-linecap="round" stroke-linejoin="round" stroke-width="0" color="#000"><path d="M299.57 205v-7.5m0-152.49v7.5"/><text fill="#000" font-family="KaTeX_Main" font-size="8" text-anchor="middle" transform="translate(299.57 215.1)"><tspan> 8</tspan></text></g><path fill="none" stroke="#333" stroke-linecap="round" stroke-linejoin="round" stroke-width=".1" d="M335.78 205V45.01" class="gridline" color="#000"/><g fill="none" stroke-linecap="round" stroke-linejoin="round" stroke-width="0" color="#000"><path d="M335.78 205v-7.5m0-152.49v7.5"/><text fill="#000" font-family="KaTeX_Main" font-size="8" text-anchor="middle" transform="translate(335.78 215.1)"><tspan> 9</tspan></text></g><path fill="none" stroke="#333" stroke-linecap="round" stroke-linejoin="round" stroke-width=".1" d="M371.99 205V45.01" class="gridline" color="#000"/><g fill="none" stroke-linecap="round" stroke-linejoin="round" stroke-width="0" color="#000"><path d="M371.99 205v-7.5m0-152.49v7.5"/><text fill="#000" font-family="KaTeX_Main" font-size="8" text-anchor="middle" transform="translate(371.99 215.1)"><tspan> 10</tspan></text></g><g fill="none" stroke-linecap="round" stroke-linejoin="round" stroke-width="0" color="#000"><path d="M371.99 205h-7.5"/><text fill="#000" font-family="KaTeX_Main" font-size="8" transform="translate(378.99 207.6)"><tspan>0.00</tspan></text></g><g fill="none" stroke-linecap="round" stroke-linejoin="round" stroke-width="0" color="#000"><path d="M371.99 165h-7.5"/><text fill="#000" font-family="KaTeX_Main" font-size="8" transform="translate(378.99 167.6)"><tspan>0.00</tspan></text></g><g fill="none" stroke-linecap="round" stroke-linejoin="round" stroke-width="0" color="#000"><path d="M371.99 125h-7.5"/><text fill="#000" font-family="KaTeX_Main" font-size="8" transform="translate(378.99 127.6)"><tspan>0.00</tspan></text></g><g fill="none" stroke-linecap="round" stroke-linejoin="round" stroke-width="0" color="#000"><path d="M371.99 85.01h-7.5"/><text fill="#000" font-family="KaTeX_Main" font-size="8" transform="translate(378.99 87.61)"><tspan>0.00</tspan></text></g><g fill="none" stroke-linecap="round" stroke-linejoin="round" stroke-width="0" color="#000"><path d="M371.99 45.01h-7.5"/><text fill="#000" font-family="KaTeX_Main" font-size="8" transform="translate(378.99 47.61)"><tspan>0.00</tspan></text></g><path fill="none" d="M28 45.01V205M371.99 45.01H28" color="#000"/><text stroke-linecap="round" stroke-linejoin="round" stroke-width="0" color="#000" font-family="KaTeX_Main" font-size="10" text-anchor="middle" transform="rotate(-90 68.255 56.755)"><tspan font-weight="bold">Rotations</tspan><tspan> / Operation</tspan></text><text stroke-linecap="round" stroke-linejoin="round" stroke-width="0" color="#000" font-family="KaTeX_Main" font-size="10" text-anchor="middle" transform="translate(199.99 238.25)"><tspan>Operations × 10</tspan><tspan dy="-5" font-size="8">5</tspan></text><text stroke-linecap="round" stroke-linejoin="round" color="#000" font-family="KaTeX_Main" font-size="8" transform="translate(116 10.11)"><tspan>TreapTopDown</tspan></text><g fill="none" stroke="currentColor" stroke-linecap="round" stroke-linejoin="round" color="#000"><path stroke="#F44336" stroke-dasharray="4.5,2.0,0.5,2.0,0.5,2.0" d="M80.5 7.51h29.9M28 205h343.99"/><use xlink:href="#c" color="#F44336" transform="matrix(3.75 0 0 3.75 354.25 205)"/><use xlink:href="#c" color="#F44336" transform="matrix(3.75 0 0 3.75 95.45 7.51)"/></g><text stroke-linecap="round" stroke-linejoin="round" color="#000" font-family="KaTeX_Main" font-size="8" transform="translate(116 25.11)"><tspan>TreapFingerTree</tspan></text><g fill="none" stroke="currentColor" stroke-linecap="round" stroke-linejoin="round" color="#000"><path stroke="#3B75EA" d="M80.5 22.51h29.9M28 205h6.52l.36-80 .36 80h1.81l.36-80 .37 80h10.86l.36-80 .36 80h2.9l.36-159.99.36 159.99h1.82l.36-80 .36 80h3.98l.36-80h.37l.36 80h3.26l.36-80 .36 80h3.26l.36-159.99h.36L68.92 205h26.07l.36-80 .36 80h31.5l.37-80 .36 80h16.65l.37-80 .36 80h9.41l.37-80 .36 80h3.98l.36-80 .36 80h.73l.36-80 .36 80h10.87l.36-80 .36 80h.36l.36-159.99.37 159.99h3.62l.36-159.99.36 159.99h28.97l.36-80 .36 80h7.97l.36-80 .36 80h3.62l.37-80 .36 80h9.05l.36-80 .37 80h7.6l.36-80 .36 80h1.09l.36-80 .36 80 .37-80 .36 80h12.31l.36-159.99.36 159.99h19.92l.36-80 .36 80h26.07l.37-80 .36 80h10.86l.36-80 .36 80h6.16l.36-159.99.36 159.99h2.54l.36-80 .36 80h23.18l.36-80 .36 80h.36l.37-80 .36 80 .36-80 .36 80h22.09"/><use xlink:href="#d" color="#3B75EA" transform="matrix(3.75 0 0 3.75 67.83 205)"/><use xlink:href="#d" color="#3B75EA" transform="matrix(3.75 0 0 3.75 95.45 22.51)"/></g><text stroke-linecap="round" stroke-linejoin="round" color="#000" font-family="KaTeX_Main" font-size="8" transform="translate(241.1 10.11)"><tspan>Randomized</tspan></text><g fill="none" stroke="currentColor" stroke-linecap="round" stroke-linejoin="round" color="#000"><path stroke="#FFAB00" d="M205.6 7.51h29.9M28 205h343.99"/><use xlink:href="#e" color="#FFAB00" transform="matrix(3.75 0 0 3.75 125.4 205)"/><use xlink:href="#e" color="#FFAB00" transform="matrix(3.75 0 0 3.75 220.55 7.51)"/></g><text stroke-linecap="round" stroke-linejoin="round" color="#000" font-family="KaTeX_Main" font-size="8" transform="translate(241.1 25.11)"><tspan>Zip</tspan></text><g fill="none" stroke="currentColor" stroke-linecap="round" stroke-linejoin="round" color="#000"><path stroke="#00C853" d="M205.6 22.51h29.9M28 205h343.99"/><use xlink:href="#f" color="#00C853" transform="matrix(3.75 0 0 3.75 182.98 205)"/><use xlink:href="#f" color="#00C853" transform="matrix(3.75 0 0 3.75 220.55 22.51)"/></g><path fill="none" d="M28 45.01V205M371.99 45.01H28" color="#000"/></svg>

<svg xmlns="http://www.w3.org/2000/svg" xmlns:xlink="http://www.w3.org/1999/xlink" viewBox="0 0 400 250"><path fill="none" d="M0 0h400v250H0z"/><defs><path id="g" stroke="currentColor" stroke-width=".267" d="M-1 0h2M0-1v2"/><path id="h" stroke="currentColor" stroke-width=".267" d="m-1-1 2 2m0-2-2 2"/><path id="i" stroke="currentColor" stroke-width=".267" d="M-1 0h2M0-1v2m-1-2 2 2m-2 0 2-2"/><path id="d" stroke="currentColor" stroke-width=".267" d="M-1-1h2v2h-2z"/><path id="b" stroke="currentColor" stroke-width=".267" d="m0-1.33-1.33 2h2.66z"/><path id="f" stroke="currentColor" stroke-width=".267" d="M0 1.33 1.265.411.782-1.067l-1.564-.009-.483 1.487z"/><use xlink:href="#b" id="c" stroke="currentColor" transform="rotate(180)"/><use xlink:href="#d" id="e" stroke="currentColor" transform="rotate(45)"/><circle id="a" cx="0" cy="0" r="1" stroke="currentColor" stroke-width=".267"/></defs><path fill="none" stroke="#333" stroke-linecap="round" stroke-linejoin="round" stroke-width=".1" d="M46.1 205V45.01" class="gridline" color="#000"/><g fill="none" stroke="none" stroke-linecap="round" stroke-linejoin="round" stroke-width="0" color="#000"><path d="M46.1 205v-7.5m0-152.49v7.5"/><text fill="#000" font-family="KaTeX_Main" font-size="8" text-anchor="middle" transform="translate(46.1 215.1)"><tspan> 1</tspan></text></g><path fill="none" stroke="#333" stroke-linecap="round" stroke-linejoin="round" stroke-width=".1" d="M82.31 205V45.01" class="gridline" color="#000"/><g fill="none" stroke="none" stroke-linecap="round" stroke-linejoin="round" stroke-width="0" color="#000"><path d="M82.31 205v-7.5m0-152.49v7.5"/><text fill="#000" font-family="KaTeX_Main" font-size="8" text-anchor="middle" transform="translate(82.31 215.1)"><tspan> 2</tspan></text></g><path fill="none" stroke="#333" stroke-linecap="round" stroke-linejoin="round" stroke-width=".1" d="M118.52 205V45.01" class="gridline" color="#000"/><g fill="none" stroke="none" stroke-linecap="round" stroke-linejoin="round" stroke-width="0" color="#000"><path d="M118.52 205v-7.5m0-152.49v7.5"/><text fill="#000" font-family="KaTeX_Main" font-size="8" text-anchor="middle" transform="translate(118.52 215.1)"><tspan> 3</tspan></text></g><path fill="none" stroke="#333" stroke-linecap="round" stroke-linejoin="round" stroke-width=".1" d="M154.73 205V45.01" class="gridline" color="#000"/><g fill="none" stroke="none" stroke-linecap="round" stroke-linejoin="round" stroke-width="0" color="#000"><path d="M154.73 205v-7.5m0-152.49v7.5"/><text fill="#000" font-family="KaTeX_Main" font-size="8" text-anchor="middle" transform="translate(154.73 215.1)"><tspan> 4</tspan></text></g><path fill="none" stroke="#333" stroke-linecap="round" stroke-linejoin="round" stroke-width=".1" d="M190.94 205V45.01" class="gridline" color="#000"/><g fill="none" stroke="none" stroke-linecap="round" stroke-linejoin="round" stroke-width="0" color="#000"><path d="M190.94 205v-7.5m0-152.49v7.5"/><text fill="#000" font-family="KaTeX_Main" font-size="8" text-anchor="middle" transform="translate(190.94 215.1)"><tspan> 5</tspan></text></g><path fill="none" stroke="#333" stroke-linecap="round" stroke-linejoin="round" stroke-width=".1" d="M227.15 205V45.01" class="gridline" color="#000"/><g fill="none" stroke="none" stroke-linecap="round" stroke-linejoin="round" stroke-width="0" color="#000"><path d="M227.15 205v-7.5m0-152.49v7.5"/><text fill="#000" font-family="KaTeX_Main" font-size="8" text-anchor="middle" transform="translate(227.15 215.1)"><tspan> 6</tspan></text></g><path fill="none" stroke="#333" stroke-linecap="round" stroke-linejoin="round" stroke-width=".1" d="M263.36 205V45.01" class="gridline" color="#000"/><g fill="none" stroke="none" stroke-linecap="round" stroke-linejoin="round" stroke-width="0" color="#000"><path d="M263.36 205v-7.5m0-152.49v7.5"/><text fill="#000" font-family="KaTeX_Main" font-size="8" text-anchor="middle" transform="translate(263.36 215.1)"><tspan> 7</tspan></text></g><path fill="none" stroke="#333" stroke-linecap="round" stroke-linejoin="round" stroke-width=".1" d="M299.57 205V45.01" class="gridline" color="#000"/><g fill="none" stroke="none" stroke-linecap="round" stroke-linejoin="round" stroke-width="0" color="#000"><path d="M299.57 205v-7.5m0-152.49v7.5"/><text fill="#000" font-family="KaTeX_Main" font-size="8" text-anchor="middle" transform="translate(299.57 215.1)"><tspan> 8</tspan></text></g><path fill="none" stroke="#333" stroke-linecap="round" stroke-linejoin="round" stroke-width=".1" d="M335.78 205V45.01" class="gridline" color="#000"/><g fill="none" stroke="none" stroke-linecap="round" stroke-linejoin="round" stroke-width="0" color="#000"><path d="M335.78 205v-7.5m0-152.49v7.5"/><text fill="#000" font-family="KaTeX_Main" font-size="8" text-anchor="middle" transform="translate(335.78 215.1)"><tspan> 9</tspan></text></g><path fill="none" stroke="#333" stroke-linecap="round" stroke-linejoin="round" stroke-width=".1" d="M371.99 205V45.01" class="gridline" color="#000"/><g fill="none" stroke="none" stroke-linecap="round" stroke-linejoin="round" stroke-width="0" color="#000"><path d="M371.99 205v-7.5m0-152.49v7.5"/><text fill="#000" font-family="KaTeX_Main" font-size="8" text-anchor="middle" transform="translate(371.99 215.1)"><tspan> 10</tspan></text></g><g fill="none" stroke="none" stroke-linecap="round" stroke-linejoin="round" stroke-width="0" color="#000"><path d="M371.99 205h-7.5"/><text fill="#000" font-family="KaTeX_Main" font-size="8" transform="translate(378.99 207.6)"><tspan>0.00</tspan></text></g><g fill="none" stroke="none" stroke-linecap="round" stroke-linejoin="round" stroke-width="0" color="#000"><path d="M371.99 165h-7.5"/><text fill="#000" font-family="KaTeX_Main" font-size="8" transform="translate(378.99 167.6)"><tspan>0.00</tspan></text></g><g fill="none" stroke="none" stroke-linecap="round" stroke-linejoin="round" stroke-width="0" color="#000"><path d="M371.99 125h-7.5"/><text fill="#000" font-family="KaTeX_Main" font-size="8" transform="translate(378.99 127.6)"><tspan>0.00</tspan></text></g><g fill="none" stroke="none" stroke-linecap="round" stroke-linejoin="round" stroke-width="0" color="#000"><path d="M371.99 85.01h-7.5"/><text fill="#000" font-family="KaTeX_Main" font-size="8" transform="translate(378.99 87.61)"><tspan>0.00</tspan></text></g><g fill="none" stroke="none" stroke-linecap="round" stroke-linejoin="round" stroke-width="0" color="#000"><path d="M371.99 45.01h-7.5"/><text fill="#000" font-family="KaTeX_Main" font-size="8" transform="translate(378.99 47.61)"><tspan>0.00</tspan></text></g><path fill="none" stroke="none" stroke-linecap="round" stroke-linejoin="round" stroke-width="0" d="M28 45.01V205M371.99 45.01H28" color="#000"/><text fill="#000" stroke="none" stroke-linecap="round" stroke-linejoin="round" stroke-width="0" color="#000" font-family="KaTeX_Main" font-size="10" text-anchor="middle" transform="rotate(-90 68.255 56.755)"><tspan font-weight="bold">Rotations</tspan><tspan> / Operation</tspan></text><text fill="#000" stroke="none" stroke-linecap="round" stroke-linejoin="round" stroke-width="0" color="#000" font-family="KaTeX_Main" font-size="10" text-anchor="middle" transform="translate(199.99 238.25)"><tspan>Operations × 10</tspan><tspan dy="-5" font-size="8">5</tspan></text><text fill="#000" stroke="none" stroke-linecap="round" stroke-linejoin="round" color="#000" font-family="KaTeX_Main" font-size="8" transform="translate(116 10.11)"><tspan>TreapTopDown</tspan></text><g fill="none" stroke="currentColor" stroke-linecap="round" stroke-linejoin="round" color="#000"><path stroke="#F44336" stroke-dasharray="4.5,2.0,0.5,2.0,0.5,2.0" d="M80.5 7.51h29.9M28 205H371.99"/><use xlink:href="#f" color="#F44336" transform="matrix(3.75 0 0 3.75 354.25 205)"/><use xlink:href="#f" color="#F44336" transform="matrix(3.75 0 0 3.75 95.45 7.51)"/></g><text fill="#000" stroke="none" stroke-linecap="round" stroke-linejoin="round" color="#000" font-family="KaTeX_Main" font-size="8" transform="translate(116 25.11)"><tspan>TreapFingerTree</tspan></text><g fill="none" stroke="currentColor" stroke-linecap="round" stroke-linejoin="round" color="#000"><path stroke="#3B75EA" d="M80.5 22.51h29.9M28 205H34.52l.36-80 .36 80H37.05l.36-80 .37 80H48.64l.36-80 .36 80H52.26l.36-159.99.36 159.99H54.8l.36-80 .36 80H59.5l.36-80h.37l.36 80h3.26l.36-80 .36 80H67.83l.36-159.99h.36L68.92 205H94.99l.36-80 .36 80H127.21l.37-80 .36 80H144.59l.37-80 .36 80h9.41l.37-80 .36 80H159.44l.36-80 .36 80h.73l.36-80 .36 80H172.48l.36-80 .36 80h.36l.36-159.99.37 159.99H177.91l.36-159.99.36 159.99H207.6l.36-80 .36 80H216.29l.36-80 .36 80H220.63l.37-80 .36 80h9.05l.36-80 .37 80H238.74l.36-80 .36 80H240.55l.36-80 .36 80 .37-80 .36 80H254.31l.36-159.99.36 159.99H274.95l.36-80 .36 80H301.74l.37-80 .36 80H313.33l.36-80 .36 80H320.21l.36-159.99.36 159.99H323.47l.36-80 .36 80H347.37l.36-80 .36 80h.36l.37-80 .36 80 .36-80 .36 80H371.99"/><use xlink:href="#g" color="#3B75EA" transform="matrix(3.75 0 0 3.75 67.83 205)"/><use xlink:href="#g" color="#3B75EA" transform="matrix(3.75 0 0 3.75 95.45 22.51)"/></g><text fill="#000" stroke="none" stroke-linecap="round" stroke-linejoin="round" color="#000" font-family="KaTeX_Main" font-size="8" transform="translate(241.1 10.11)"><tspan>Randomized</tspan></text><g fill="none" stroke="currentColor" stroke-linecap="round" stroke-linejoin="round" color="#000"><path stroke="#FFAB00" d="M205.6 7.51h29.9M28 205H371.99"/><use xlink:href="#h" color="#FFAB00" transform="matrix(3.75 0 0 3.75 125.4 205)"/><use xlink:href="#h" color="#FFAB00" transform="matrix(3.75 0 0 3.75 220.55 7.51)"/></g><text fill="#000" stroke="none" stroke-linecap="round" stroke-linejoin="round" color="#000" font-family="KaTeX_Main" font-size="8" transform="translate(241.1 25.11)"><tspan>Zip</tspan></text><g fill="none" stroke="currentColor" stroke-linecap="round" stroke-linejoin="round" color="#000"><path stroke="#00C853" d="M205.6 22.51h29.9M28 205H371.99"/><use xlink:href="#i" color="#00C853" transform="matrix(3.75 0 0 3.75 182.98 205)"/><use xlink:href="#i" color="#00C853" transform="matrix(3.75 0 0 3.75 220.55 22.51)"/></g><path fill="none" stroke="none" stroke-linecap="round" stroke-linejoin="round" stroke-width="0" d="M28 45.01V205M371.99 45.01H28" color="#000"/></svg>
